images/logo-dark-gray-colored.svg

<svg height="94" viewBox="0 0 453 94" width="453" xmlns="http://www.w3.org/2000/svg" xmlns:xlink="http://www.w3.org/1999/xlink"><linearGradient id="a" x1="25.500579%" x2="73.120064%" y1="13.681176%" y2="84.309244%"><stop offset="0" stop-color="#ff5274"/><stop offset="1" stop-color="#6446fa"/></linearGradient><g fill="none"><path d="m125.624518 32.4094167h12.174915v-14.9783929c0-6.2902299 3.14852-10.6343114 10.509969-10.6343114h18.453147v12.5109546h-13.042074c-1.873073 0-2.809596 1.0425691-2.809596 3.1277387v9.974011h41.623641v51.7119458h-13.111447v-39.2009912h-28.512194v39.2009912h-13.111446v-39.2009912h-12.174915zm53.922505-25.6127043h13.007388v13.0322444h-13.007388zm37.964363 40.208818c0 1.6681357.867151 2.8670902 2.601478 3.5968995s4.890755 1.3379747 9.469378 1.8245142c5.272354.5560452 9.573421 2.1372751 12.903328 4.743737 3.329908 2.6064619 4.994837 6.2380777 4.994837 10.8949563v.6255477c0 5.1434182-1.873045 9.2441901-5.619191 12.3024387-3.746147 3.0582487-9.018422 4.5873501-15.816984 4.5873501-4.023638 0-7.457554-.5212846-10.30185-1.5638694-2.844297-1.0425847-5.202946-2.3457961-7.076019-3.9096733-1.873074-1.5638771-3.312543-3.3014923-4.318453-5.2128977s-1.682287-3.7706537-2.029153-5.5778006l12.070856-3.9618023c.554985 2.2241808 1.716967 4.1703098 3.48598 5.8384454 1.769014 1.6681357 4.491866 2.502191 8.168639 2.502191 3.260535 0 5.497784-.5039084 6.711812-1.5117404 1.214029-1.0078319 1.821035-2.1025295 1.821035-3.2841256 0-.6950565-.156087-1.3379741-.468266-1.9287721-.312179-.5907981-.884498-1.1468349-1.716975-1.6681273s-1.959773-.9556962-3.381921-1.3032245c-1.422148-.3475282-3.208478-.6255467-5.359044-.8340636-5.827339-.4865396-10.457922-1.9982648-13.89189-4.5352211-3.433967-2.5369562-5.150925-6.2728289-5.150925-11.2077301v-.6255478c0-2.5717091.554976-4.8306088 1.664945-6.7767671 1.10997-1.9461582 2.566782-3.5968926 4.370483-4.9522528 1.8037-1.3553602 3.884861-2.3805532 6.243546-3.0756097 2.358684-.6950565 4.786706-1.0425796 7.284137-1.0425796 3.260534 0 6.087445.3996515 8.480816 1.1989665 2.393372.799315 4.422504 1.8418841 6.087458 3.1277387 1.664954 1.2858545 3.017709 2.710699 4.058305 4.2745761 1.040596 1.5638772 1.838374 3.0756024 2.393359 4.5352211l-11.862737 4.7958659c-.624358-1.8766525-1.699625-3.3536255-3.225833-4.4309631-1.526207-1.0773375-3.50331-1.6159983-5.931368-1.6159983-2.219939 0-3.884868.3996515-4.994837 1.1989665s-1.664946 1.7897557-1.664946 2.9713517zm50.676782 0c0 1.6681357.867151 2.8670902 2.601478 3.5968995s4.890755 1.3379747 9.469378 1.8245142c5.272354.5560452 9.573421 2.1372751 12.903329 4.743737 3.329907 2.6064619 4.994836 6.2380777 4.994836 10.8949563v.6255477c0 5.1434182-1.873045 9.2441901-5.619191 12.3024387-3.746146 3.0582487-9.018421 4.5873501-15.816983 4.5873501-4.023639 0-7.457555-.5212846-10.301851-1.5638694-2.844297-1.0425847-5.202946-2.3457961-7.076019-3.9096733-1.873073-1.5638771-3.312543-3.3014923-4.318453-5.2128977s-1.682287-3.7706537-2.029152-5.5778006l12.070855-3.9618023c.554985 2.2241808 1.716967 4.1703098 3.48598 5.8384454 1.769014 1.6681357 4.491866 2.502191 8.16864 2.502191 3.260534 0 5.497783-.5039084 6.711812-1.5117404 1.214029-1.0078319 1.821034-2.1025295 1.821034-3.2841256 0-.6950565-.156087-1.3379741-.468266-1.9287721-.312179-.5907981-.884498-1.1468349-1.716975-1.6681273s-1.959773-.9556962-3.381921-1.3032245c-1.422148-.3475282-3.208478-.6255467-5.359044-.8340636-5.827339-.4865396-10.457922-1.9982648-13.89189-4.5352211-3.433967-2.5369562-5.150925-6.2728289-5.150925-11.2077301v-.6255478c0-2.5717091.554976-4.8306088 1.664945-6.7767671 1.10997-1.9461582 2.566783-3.5968926 4.370483-4.9522528s3.884861-2.3805532 6.243546-3.0756097c2.358684-.6950565 4.786706-1.0425796 7.284137-1.0425796 3.260535 0 6.087445.3996515 8.480817 1.1989665 2.393371.799315 4.422503 1.8418841 6.087457 3.1277387 1.664954 1.2858545 3.017709 2.710699 4.058305 4.2745761 1.040596 1.5638772 1.838375 3.0756024 2.393359 4.5352211l-11.862737 4.7958659c-.624358-1.8766525-1.699625-3.3536255-3.225832-4.4309631-1.526208-1.0773375-3.503311-1.6159983-5.931369-1.6159983-2.219939 0-3.884868.3996515-4.994837 1.1989665s-1.664946 1.7897557-1.664946 2.9713517zm49.144608-2.0851591h-12.136012v-12.5109546h25.247459v51.7324021l-13.111447-.0204563zm.11646-38.1236589h13.007388v13.0322444h-13.007388zm77.728513 52.0942249c0 4.3093504-.728407 8.1147277-2.185242 11.4162461-1.456834 3.3015184-3.433937 6.0817028-5.931368 8.3406364-2.497431 2.2589337-5.359028 3.9791728-8.584876 5.1607688-3.225848 1.1815961-6.607735 1.7723853-10.145762 1.7723853-3.538028 0-6.919915-.5907892-10.145763-1.7723853-3.225848-1.181596-6.087445-2.9018351-8.584876-5.1607688-2.497431-2.2589336-4.474534-5.039118-5.931368-8.3406364-1.456835-3.3015184-2.185241-7.1068957-2.185241-11.4162461v-1.2510954c0-4.2398447.728406-8.0104697 2.185241-11.3119882 1.456834-3.3015184 3.433937-6.0990789 5.931368-8.3927654 2.497431-2.2936864 5.359028-4.0313016 8.584876-5.2128977s6.607735-1.7723853 10.145763-1.7723853c3.538027 0 6.919914.5907892 10.145762 1.7723853s6.087445 2.9192113 8.584876 5.2128977c2.497431 2.2936865 4.474534 5.091247 5.931368 8.3927654 1.456835 3.3015185 2.185242 7.0721435 2.185242 11.3119882zm-26.847248 14.1790819c1.873073 0 3.64206-.3127707 5.307014-.9383216 1.664954-.6255508 3.121766-1.5291107 4.370482-2.7107068 1.248715-1.1815961 2.237267-2.6238167 2.965684-4.3267051.728418-1.7028885 1.092621-3.6316414 1.092621-5.7863165v-2.0851591c0-2.1546752-.364203-4.0834281-1.092621-5.7863166-.728417-1.7028884-1.716969-3.145109-2.965684-4.3267051-1.248716-1.1815961-2.705528-2.085156-4.370482-2.7107068-1.664954-.6255509-3.433941-.9383216-5.307014-.9383216-1.873074 0-3.642061.3127707-5.307015.9383216-1.664954.6255508-3.121766 1.5291107-4.370482 2.7107068-1.248715 1.1815961-2.237267 2.6238167-2.965684 4.3267051-.728418 1.7028885-1.092621 3.6316414-1.092621 5.7863166v2.0851591c0 2.1546751.364203 4.083428 1.092621 5.7863165.728417 1.7028884 1.716969 3.145109 2.965684 4.3267051 1.248716 1.1815961 2.705528 2.085156 4.370482 2.7107068 1.664954.6255509 3.433941.9383216 5.307015.9383216zm49.303312 11.0513433h-13.111446v-51.7119458h13.111446v7.7150887h1.873064c1.179343-2.9192373 3.087074-5.1781371 5.723251-6.7767671s5.723233-2.397933 9.26126-2.397933c2.497431 0 4.838737.3996515 7.023989 1.1989665s4.110326 2.0330218 5.77528 3.7011574c1.664954 1.6681357 2.96568 3.7880262 3.902216 6.3597353.936537 2.5717091 1.404798 5.6299119 1.404798 9.1747001v32.7369979h-13.111446v-29.4007434c0-3.6837995-.884494-6.5856169-2.653507-8.7055392-1.769014-2.1199224-4.318436-3.1798677-7.648344-3.1798677-3.884893 0-6.781176 1.3032114-8.688935 3.9096734-1.90776 2.6064619-2.861626 6.0990684-2.861626 10.4779245z" fill="#3e415c"/><path d="m29.5003321 76.3978031c1.9735578-3.8680525 5.9897885-6.5161222 10.6233294-6.5161222 6.5851334 0 11.9234387 5.3485067 11.9234387 11.9462241 0 6.5977173-5.3383053 11.946224-11.9234387 11.946224-4.6335409 0-8.6497716-2.6480696-10.6233294-6.5161222h-11.0556499c-10.17702423 0-18.42713244-8.265874-18.42713244-18.4623462 0-10.1964723 8.25010821-18.4623463 18.42713244-18.4623463h25.9764415l-4.3868122-6.5161222h-21.5896293c-10.17702423 0-18.42713244-8.2658739-18.42713244-18.4623462s8.25010821-18.46234622 18.42713244-18.46234622c5.9010046 0 10.8398383 2.28279593 14.4207134 6.97006662.2335492.3057097 1.1309046 1.6099858 3.2449682 4.7050946l9.686801 14.3893276h33.3486596c4.1905393 0 7.5876427-3.4035952 7.5876427-7.6021426s-3.3971034-7.6021426-7.5876427-7.6021426h-11.0556499c-1.9735578 3.8680526-5.9897886 6.5161222-10.6233295 6.5161222-6.5851333 0-11.9234386-5.3485066-11.9234386-11.946224 0-6.59771734 5.3383053-11.94622402 11.9234386-11.94622402 4.6335409 0 8.6497717 2.64806962 10.6233295 6.5161222h11.0556499c10.1770242 0 18.4271324 8.26587392 18.4271324 18.46234622s-8.2501082 18.4623462-18.4271324 18.4623462h-26.0376417l4.3866108 6.5161222h21.6510309c10.1770242 0 18.4271324 8.265874 18.4271324 18.4623463 0 10.1964722-8.2501082 18.4623462-18.4271324 18.4623462-5.6334016 0-10.8595819-2.5556037-14.5407651-7.1331233l-2.6811219-3.7930842-10.1914599-15.1382813h-33.2877953c-4.1905394 0-7.5876428 3.4035952-7.5876428 7.6021426s3.3971034 7.6021425 7.5876428 7.6021425zm41.3387217-6.2421622 2.4019087 3.4147959c1.4365903 1.779581 3.5792992 2.8273663 5.9048619 2.8273663 4.1905393 0 7.5876427-3.4035951 7.5876427-7.6021425s-3.3971034-7.6021426-7.5876427-7.6021426h-14.340013zm-43.6944371-45.4846581c-1.7049125-2.4959116-2.8445878-4.1523915-2.886699-4.207514-1.4619344-1.9136334-3.1865312-2.7107655-5.8132355-2.7107655-4.1905394 0-7.5876428 3.4035952-7.5876428 7.6021426s3.3971034 7.6021426 7.5876428 7.6021426h14.2782755z" fill="url(#a)"/></g></svg>

<?xml version="1.0" encoding="UTF-8"?>
<svg width="453px" height="94px" viewBox="0 0 453 94" version="1.1" xmlns="http://www.w3.org/2000/svg" xmlns:xlink="http://www.w3.org/1999/xlink">
    <!-- Generator: Sketch 52.6 (67491) - http://www.bohemiancoding.com/sketch -->
    <title>Fission Main Logo</title>
    <desc>Created with Sketch.</desc>
    <defs>
        <linearGradient x1="25.5005787%" y1="13.6811756%" x2="73.1200638%" y2="84.3092438%" id="linearGradient-1">
            <stop stop-color="#FF5274" offset="0%"></stop>
            <stop stop-color="#6446FA" offset="100%"></stop>
        </linearGradient>
    </defs>
    <g id="Page-1" stroke="none" stroke-width="1" fill="none" fill-rule="evenodd">
        <g id="Logos-Source" transform="translate(-368.000000, -256.000000)" fill-rule="nonzero">
            <g id="Main-Logo" transform="translate(64.000000, 200.000000)">
                <g id="Fission-Main-Logo" transform="translate(304.000000, 56.000000)">
                    <path d="M125.624518,32.4094167 L137.799433,32.4094167 L137.799433,17.4310238 C137.799433,11.1407939 140.947953,6.7967124 148.309402,6.7967124 L166.762549,6.7967124 L166.762549,19.307667 L153.720475,19.307667 C151.847402,19.307667 150.910879,20.3502361 150.910879,22.4354057 L150.910879,32.4094167 L192.53452,32.4094167 L192.53452,84.1213625 L179.423073,84.1213625 L179.423073,44.9203713 L150.910879,44.9203713 L150.910879,84.1213625 L137.799433,84.1213625 L137.799433,44.9203713 L125.624518,44.9203713 L125.624518,32.4094167 Z M179.547023,6.7967124 L192.554411,6.7967124 L192.554411,19.8289568 L179.547023,19.8289568 L179.547023,6.7967124 Z M217.511386,47.0055304 C217.511386,48.6736661 218.378537,49.8726206 220.112864,50.6024299 C221.847191,51.3322392 225.003619,51.9404046 229.582242,52.4269441 C234.854596,52.9829893 239.155663,54.5642192 242.48557,57.1706811 C245.815478,59.777143 247.480407,63.4087588 247.480407,68.0656374 L247.480407,68.6911851 C247.480407,73.8346033 245.607362,77.9353752 241.861216,80.9936238 C238.115069,84.0518725 232.842794,85.5809739 226.044232,85.5809739 C222.020594,85.5809739 218.586678,85.0596893 215.742382,84.0171045 C212.898085,82.9745198 210.539436,81.6713084 208.666363,80.1074312 C206.793289,78.5435541 205.35382,76.8059389 204.34791,74.8945335 C203.342,72.9831281 202.665623,71.1238798 202.318757,69.3167329 L214.389613,65.3549306 C214.944598,67.5791114 216.10658,69.5252404 217.875593,71.193376 C219.644607,72.8615117 222.367459,73.695567 226.044232,73.695567 C229.304767,73.695567 231.542016,73.1916586 232.756044,72.1838266 C233.970073,71.1759947 234.577079,70.0812971 234.577079,68.899701 C234.577079,68.2046445 234.420992,67.5617269 234.108813,66.9709289 C233.796634,66.3801308 233.224315,65.824094 232.391838,65.3028016 C231.559361,64.7815092 230.432065,64.3471054 229.009917,63.9995771 C227.587769,63.6520489 225.801439,63.3740304 223.650873,63.1655135 C217.823534,62.6789739 213.192951,61.1672487 209.758983,58.6302924 C206.325016,56.0933362 204.608058,52.3574635 204.608058,47.4225623 L204.608058,46.7970145 C204.608058,44.2253054 205.163034,41.9664057 206.273003,40.0202474 C207.382973,38.0740892 208.839785,36.4233548 210.643486,35.0679946 C212.447186,33.7126344 214.528347,32.6874414 216.887032,31.9923849 C219.245716,31.2973284 221.673738,30.9498053 224.171169,30.9498053 C227.431703,30.9498053 230.258614,31.3494568 232.651985,32.1487718 C235.045357,32.9480868 237.074489,33.9906559 238.739443,35.2765105 C240.404397,36.562365 241.757152,37.9872095 242.797748,39.5510866 C243.838344,41.1149638 244.636122,42.626689 245.191107,44.0863077 L233.32837,48.8821736 C232.704012,47.0055211 231.628745,45.5285481 230.102537,44.4512105 C228.57633,43.373873 226.599227,42.8352122 224.171169,42.8352122 C221.95123,42.8352122 220.286301,43.2348637 219.176332,44.0341787 C218.066363,44.8334937 217.511386,45.8239344 217.511386,47.0055304 Z M268.188168,47.0055304 C268.188168,48.6736661 269.055319,49.8726206 270.789646,50.6024299 C272.523973,51.3322392 275.680401,51.9404046 280.259024,52.4269441 C285.531378,52.9829893 289.832445,54.5642192 293.162353,57.1706811 C296.49226,59.777143 298.157189,63.4087588 298.157189,68.0656374 L298.157189,68.6911851 C298.157189,73.8346033 296.284144,77.9353752 292.537998,80.9936238 C288.791852,84.0518725 283.519577,85.5809739 276.721015,85.5809739 C272.697376,85.5809739 269.26346,85.0596893 266.419164,84.0171045 C263.574867,82.9745198 261.216218,81.6713084 259.343145,80.1074312 C257.470072,78.5435541 256.030602,76.8059389 255.024692,74.8945335 C254.018782,72.9831281 253.342405,71.1238798 252.99554,69.3167329 L265.066395,65.3549306 C265.62138,67.5791114 266.783362,69.5252404 268.552375,71.193376 C270.321389,72.8615117 273.044241,73.695567 276.721015,73.695567 C279.981549,73.695567 282.218798,73.1916586 283.432827,72.1838266 C284.646856,71.1759947 285.253861,70.0812971 285.253861,68.899701 C285.253861,68.2046445 285.097774,67.5617269 284.785595,66.9709289 C284.473416,66.3801308 283.901097,65.824094 283.06862,65.3028016 C282.236143,64.7815092 281.108847,64.3471054 279.686699,63.9995771 C278.264551,63.6520489 276.478221,63.3740304 274.327655,63.1655135 C268.500316,62.6789739 263.869733,61.1672487 260.435765,58.6302924 C257.001798,56.0933362 255.28484,52.3574635 255.28484,47.4225623 L255.28484,46.7970145 C255.28484,44.2253054 255.839816,41.9664057 256.949785,40.0202474 C258.059755,38.0740892 259.516568,36.4233548 261.320268,35.0679946 C263.123968,33.7126344 265.205129,32.6874414 267.563814,31.9923849 C269.922498,31.2973284 272.35052,30.9498053 274.847951,30.9498053 C278.108486,30.9498053 280.935396,31.3494568 283.328768,32.1487718 C285.722139,32.9480868 287.751271,33.9906559 289.416225,35.2765105 C291.081179,36.562365 292.433934,37.9872095 293.47453,39.5510866 C294.515126,41.1149638 295.312905,42.626689 295.867889,44.0863077 L284.005152,48.8821736 C283.380794,47.0055211 282.305527,45.5285481 280.77932,44.4512105 C279.253112,43.373873 277.276009,42.8352122 274.847951,42.8352122 C272.628012,42.8352122 270.963083,43.2348637 269.853114,44.0341787 C268.743145,44.8334937 268.188168,45.8239344 268.188168,47.0055304 Z M317.332776,44.9203713 L305.196764,44.9203713 L305.196764,32.4094167 L330.444223,32.4094167 L330.444223,84.1418188 L317.332776,84.1213625 L317.332776,44.9203713 Z M317.449236,6.7967124 L330.456624,6.7967124 L330.456624,19.8289568 L317.449236,19.8289568 L317.449236,6.7967124 Z M395.177749,58.8909373 C395.177749,63.2002877 394.449342,67.005665 392.992507,70.3071834 C391.535673,73.6087018 389.55857,76.3888862 387.061139,78.6478198 C384.563708,80.9067535 381.702111,82.6269926 378.476263,83.8085886 C375.250415,84.9901847 371.868528,85.5809739 368.330501,85.5809739 C364.792473,85.5809739 361.410586,84.9901847 358.184738,83.8085886 C354.95889,82.6269926 352.097293,80.9067535 349.599862,78.6478198 C347.102431,76.3888862 345.125328,73.6087018 343.668494,70.3071834 C342.211659,67.005665 341.483253,63.2002877 341.483253,58.8909373 L341.483253,57.6398419 C341.483253,53.3999972 342.211659,49.6293722 343.668494,46.3278537 C345.125328,43.0263353 347.102431,40.2287748 349.599862,37.9350883 C352.097293,35.6414019 354.95889,33.9037867 358.184738,32.7221906 C361.410586,31.5405945 364.792473,30.9498053 368.330501,30.9498053 C371.868528,30.9498053 375.250415,31.5405945 378.476263,32.7221906 C381.702111,33.9037867 384.563708,35.6414019 387.061139,37.9350883 C389.55857,40.2287748 391.535673,43.0263353 392.992507,46.3278537 C394.449342,49.6293722 395.177749,53.3999972 395.177749,57.6398419 L395.177749,58.8909373 Z M368.330501,73.0700192 C370.203574,73.0700192 371.972561,72.7572485 373.637515,72.1316976 C375.302469,71.5061468 376.759281,70.6025869 378.007997,69.4209908 C379.256712,68.2393947 380.245264,66.7971741 380.973681,65.0942857 C381.702099,63.3913972 382.066302,61.4626443 382.066302,59.3079692 L382.066302,57.2228101 C382.066302,55.0681349 381.702099,53.139382 380.973681,51.4364935 C380.245264,49.7336051 379.256712,48.2913845 378.007997,47.1097884 C376.759281,45.9281923 375.302469,45.0246324 373.637515,44.3990816 C371.972561,43.7735307 370.203574,43.46076 368.330501,43.46076 C366.457427,43.46076 364.68844,43.7735307 363.023486,44.3990816 C361.358532,45.0246324 359.90172,45.9281923 358.653004,47.1097884 C357.404289,48.2913845 356.415737,49.7336051 355.68732,51.4364935 C354.958902,53.139382 354.594699,55.0681349 354.594699,57.2228101 L354.594699,59.3079692 C354.594699,61.4626443 354.958902,63.3913972 355.68732,65.0942857 C356.415737,66.7971741 357.404289,68.2393947 358.653004,69.4209908 C359.90172,70.6025869 361.358532,71.5061468 363.023486,72.1316976 C364.68844,72.7572485 366.457427,73.0700192 368.330501,73.0700192 Z M417.633813,84.1213625 L404.522367,84.1213625 L404.522367,32.4094167 L417.633813,32.4094167 L417.633813,40.1245054 L419.506877,40.1245054 C420.68622,37.2052681 422.593951,34.9463683 425.230128,33.3477383 C427.866305,31.7491083 430.953361,30.9498053 434.491388,30.9498053 C436.988819,30.9498053 439.330125,31.3494568 441.515377,32.1487718 C443.700629,32.9480868 445.625703,34.1817936 447.290657,35.8499292 C448.955611,37.5180649 450.256337,39.6379554 451.192873,42.2096645 C452.12941,44.7813736 452.597671,47.8395764 452.597671,51.3843646 L452.597671,84.1213625 L439.486225,84.1213625 L439.486225,54.7206191 C439.486225,51.0368196 438.601731,48.1350022 436.832718,46.0150799 C435.063704,43.8951575 432.514282,42.8352122 429.184374,42.8352122 C425.299481,42.8352122 422.403198,44.1384236 420.495439,46.7448856 C418.587679,49.3513475 417.633813,52.843954 417.633813,57.2228101 L417.633813,84.1213625 Z" id="fission" fill="rgb(62, 65, 92)"></path>
                    <path d="M29.5003321,76.3978031 C31.4738899,72.5297506 35.4901206,69.8816809 40.1236615,69.8816809 C46.7087949,69.8816809 52.0471002,75.2301876 52.0471002,81.827905 C52.0471002,88.4256223 46.7087949,93.774129 40.1236615,93.774129 C35.4901206,93.774129 31.4738899,91.1260594 29.5003321,87.2580068 L18.4446822,87.2580068 C8.26765797,87.2580068 0.0175497576,78.9921328 0.0175497576,68.7956606 C0.0175497576,58.5991883 8.26765797,50.3333143 18.4446822,50.3333143 L44.4211237,50.3333143 L40.0343115,43.8171921 L18.4446822,43.8171921 C8.26765797,43.8171921 0.0175497576,35.5513182 0.0175497576,25.3548459 C0.0175497576,15.1583736 8.26765797,6.89249968 18.4446822,6.89249968 C24.3456868,6.89249968 29.2845205,9.17529561 32.8653956,13.8625663 C33.0989448,14.168276 33.9963002,15.4725521 36.1103638,18.5676609 L45.7971648,32.9569885 L79.1458244,32.9569885 C83.3363637,32.9569885 86.7334671,29.5533933 86.7334671,25.3548459 C86.7334671,21.1562985 83.3363637,17.7527033 79.1458244,17.7527033 L68.0901745,17.7527033 C66.1166167,21.6207559 62.1003859,24.2688255 57.466845,24.2688255 C50.8817117,24.2688255 45.5434064,18.9203189 45.5434064,12.3226015 C45.5434064,5.72488416 50.8817117,0.376377481 57.466845,0.376377481 C62.1003859,0.376377481 66.1166167,3.0244471 68.0901745,6.89249968 L79.1458244,6.89249968 C89.3228486,6.89249968 97.5729568,15.1583736 97.5729568,25.3548459 C97.5729568,35.5513182 89.3228486,43.8171921 79.1458244,43.8171921 L53.1081827,43.8171921 L57.4947935,50.3333143 L79.1458244,50.3333143 C89.3228486,50.3333143 97.5729568,58.5991883 97.5729568,68.7956606 C97.5729568,78.9921328 89.3228486,87.2580068 79.1458244,87.2580068 C73.5124228,87.2580068 68.2862425,84.7024031 64.6050593,80.1248835 L61.9239374,76.3317993 L51.7324775,61.193518 L18.4446822,61.193518 C14.2541428,61.193518 10.8570394,64.5971132 10.8570394,68.7956606 C10.8570394,72.994208 14.2541428,76.3978031 18.4446822,76.3978031 L29.5003321,76.3978031 Z M70.8390538,70.1556409 L73.2409625,73.5704368 C74.6775528,75.3500178 76.8202617,76.3978031 79.1458244,76.3978031 C83.3363637,76.3978031 86.7334671,72.994208 86.7334671,68.7956606 C86.7334671,64.5971132 83.3363637,61.193518 79.1458244,61.193518 L64.8058114,61.193518 L70.8390538,70.1556409 Z M27.1446167,24.6709828 C25.4397042,22.1750712 24.3000289,20.5185913 24.2579177,20.4634688 C22.7959833,18.5498354 21.0713865,17.7527033 18.4446822,17.7527033 C14.2541428,17.7527033 10.8570394,21.1562985 10.8570394,25.3548459 C10.8570394,29.5533933 14.2541428,32.9569885 18.4446822,32.9569885 L32.7229577,32.9569885 L27.1446167,24.6709828 Z" id="Shape" fill="url(#linearGradient-1)"></path>
                </g>
            </g>
        </g>
    </g>
</svg>
